icon/pk/projector-three.svg

<svg viewBox="0 0 48 48" fill="none" xmlns="http://www.w3.org/2000/svg" height="1em" width="1em">
  <path d="M6 38V32H12H36H42V38H36V32H12V38H6Z" fill="#2F88FF"/>
  <path d="M42 38V32H36V38H42Z" stroke="black" stroke-width="4" stroke-linecap="round" stroke-linejoin="round"/>
  <path d="M6 38V32H12V38H6Z" stroke="black" stroke-width="4" stroke-linecap="round" stroke-linejoin="round"/>
  <path d="M24 16H4V32H6H12H36H42H44V16H38" stroke="black" stroke-width="4" stroke-linecap="round" stroke-linejoin="round"/>
  <path d="M10 24H18" stroke="black" stroke-width="4" stroke-linecap="round" stroke-linejoin="round"/>
  <path d="M31 23C34.866 23 38 19.866 38 16C38 12.134 34.866 9 31 9C27.134 9 24 12.134 24 16C24 19.866 27.134 23 31 23Z" fill="#2F88FF" stroke="black" stroke-width="4" stroke-linecap="round" stroke-linejoin="round"/>
  <path d="M31 19C32.6569 19 34 17.6569 34 16C34 14.3431 32.6569 13 31 13C29.3431 13 28 14.3431 28 16C28 17.6569 29.3431 19 31 19Z" fill="white"/>
</svg>

<svg width="48" height="48" fill="none" xmlns="http://www.w3.org/2000/svg"><path d="M6 38v-6h36v6h-6v-6H12v6H6Z" fill="#2F88FF"/><path d="M42 38v-6h-6v6h6ZM6 38v-6h6v6H6ZM24 16H4v16h40V16h-6M10 24h8" stroke="#000" stroke-width="4" stroke-linecap="round" stroke-linejoin="round"/><path d="M31 23a7 7 0 1 0 0-14 7 7 0 0 0 0 14Z" fill="#2F88FF" stroke="#000" stroke-width="4" stroke-linecap="round" stroke-linejoin="round"/><path d="M31 19a3 3 0 1 0 0-6 3 3 0 0 0 0 6Z" fill="#fff"/></svg>
